src/assets/svg/icons/fa/nuevos/classic/light/calendar-lines classic light.svg

<svg xmlns="http://www.w3.org/2000/svg" viewBox="0 0 448 512"><!--! Font Awesome Pro 6.4.0 by @fontawesome - https://fontawesome.com License - https://fontawesome.com/license (Commercial License) Copyright 2023 Fonticons, Inc. --><path d="M112 0c8.8 0 16 7.2 16 16V64H320V16c0-8.8 7.2-16 16-16s16 7.2 16 16V64h32c35.3 0 64 28.7 64 64v32 32V448c0 35.3-28.7 64-64 64H64c-35.3 0-64-28.7-64-64V192 160 128C0 92.7 28.7 64 64 64H96V16c0-8.8 7.2-16 16-16zM416 192H32V448c0 17.7 14.3 32 32 32H384c17.7 0 32-14.3 32-32V192zM384 96H64c-17.7 0-32 14.3-32 32v32H416V128c0-17.7-14.3-32-32-32zM96 368c0-8.8 7.2-16 16-16H240c8.8 0 16 7.2 16 16s-7.2 16-16 16H112c-8.8 0-16-7.2-16-16zm16-112H336c8.8 0 16 7.2 16 16s-7.2 16-16 16H112c-8.8 0-16-7.2-16-16s7.2-16 16-16z"/></svg>

<svg xmlns="http://www.w3.org/2000/svg" viewBox="0 0 448 512"><path d="M96 368C96 359.2 103.2 352 112 352H240C248.8 352 256 359.2 256 368C256 376.8 248.8 384 240 384H112C103.2 384 96 376.8 96 368zM336 256C344.8 256 352 263.2 352 272C352 280.8 344.8 288 336 288H112C103.2 288 96 280.8 96 272C96 263.2 103.2 256 112 256H336zM112 0C120.8 0 128 7.164 128 16V64H320V16C320 7.164 327.2 0 336 0C344.8 0 352 7.164 352 16V64H384C419.3 64 448 92.65 448 128V448C448 483.3 419.3 512 384 512H64C28.65 512 0 483.3 0 448V128C0 92.65 28.65 64 64 64H96V16C96 7.164 103.2 0 112 0zM416 192H32V448C32 465.7 46.33 480 64 480H384C401.7 480 416 465.7 416 448V192zM384 96H64C46.33 96 32 110.3 32 128V160H416V128C416 110.3 401.7 96 384 96z"/></svg>
